public/img/logo/bloc-logo-color.svg

<?xml version="1.0" encoding="UTF-8"?>
<svg width="255px" height="148px" viewBox="0 0 255 148" version="1.1" xmlns="http://www.w3.org/2000/svg" xmlns:xlink="http://www.w3.org/1999/xlink">
    <!-- Generator: Sketch 53.2 (72643) - https://sketchapp.com -->
    <title>bloc</title>
    <desc>Created with Sketch.</desc>
    <g id="Page-1" stroke="none" stroke-width="1" fill="none" fill-rule="evenodd">
        <g id="Desktop-HD-Copy-6" transform="translate(-115.000000, -334.000000)" fill="#232D70" fill-rule="nonzero">
            <g id="Group" transform="translate(115.000000, 334.000000)">
                <path d="M82.7410383,99.1365079 C84.106929,99.1365079 85.1575983,99.8151608 85.8930779,101.172487 C86.6285574,102.529813 86.9962917,104.252547 86.9962917,106.340741 C86.9962917,108.950983 86.6285574,110.96084 85.8930779,112.37037 C85.1575983,113.779901 84.001862,114.745676 82.4258344,115.267725 C76.1217237,117.460328 69.1873061,118.713226 61.6223733,119.026455 C59.5210031,127.69246 55.5547263,134.687804 49.723424,140.012698 C43.8921216,145.337593 37.4567719,148 30.4171817,148 C19.8052621,148 12.0828425,143.980287 7.24969098,135.940741 C2.41653949,127.901194 0,116.259688 0,101.015873 C0,87.5470226 1.68107095,72.9037828 5.04326329,57.0857143 C8.40545562,41.2676458 13.3173348,27.7989974 19.7790482,16.6793651 C26.2407616,5.55973276 33.9369146,0 42.8677379,0 C47.7008894,0 51.588366,2.06206051 54.5302843,6.18624339 C57.4722026,10.3104263 58.9431397,15.6613428 58.9431397,22.2391534 C58.9431397,30.8007483 57.3146022,39.3100106 54.0574784,47.7671958 C50.8003545,56.2243809 45.3894074,65.0990717 37.8244747,74.3915344 C44.8640649,74.9135829 50.5902128,77.8109084 55.0030902,83.0835979 C59.4159677,88.3562874 62.042641,94.8556933 62.8831891,102.582011 C67.8214091,102.268782 73.7051574,101.2247 80.5346106,99.4497354 C81.1650217,99.2409161 81.9004902,99.1365079 82.7410383,99.1365079 Z M39.2428925,15.5047619 C37.1415222,15.5047619 34.8563164,18.6109037 32.3872064,24.8232804 C29.9180964,31.0356572 27.6328906,39.4666134 25.5315204,50.1164021 C23.4301502,60.7661908 21.8541462,72.407697 20.8034611,85.0412698 C27.7379828,72.407697 33.2802636,61.2621294 37.4304697,51.6042328 C41.5806759,41.9463362 43.6557478,33.3587677 43.6557478,25.8412698 C43.6557478,22.5001597 43.2617468,19.9421606 42.473733,18.1671958 C41.6857192,16.392231 40.6087831,15.5047619 39.2428925,15.5047619 Z M31.0475896,131.398942 C34.3047134,131.398942 37.1940541,130.041636 39.7156984,127.326984 C42.2373426,124.612332 43.9184136,120.697027 44.7589617,115.580952 C41.5018379,113.388349 39.0064982,110.517125 37.2728677,106.967196 C35.5392373,103.417266 34.6724351,99.6585736 34.6724351,95.6910053 C34.6724351,94.2292696 34.882569,92.2455152 35.302843,89.7396825 L34.8300371,89.7396825 C30.5222282,89.7396825 26.9236856,91.8539471 24.0343016,96.0825397 C21.1449176,100.311132 19.7002472,105.975273 19.7002472,113.075132 C19.7002472,119.026485 20.8297168,123.568238 23.0886897,126.700529 C25.3476627,129.83282 28.0006028,131.398942 31.0475896,131.398942 Z M133.173671,112.292063 C134.539562,112.292063 135.616498,112.918512 136.404512,114.171429 C137.192526,115.424345 137.586527,117.147079 137.586527,119.339683 C137.586527,123.51607 136.588391,126.752722 134.592089,129.049735 C130.074143,134.583449 125.162264,139.125203 119.856304,142.675132 C114.550344,146.225062 108.535262,148 101.810878,148 C92.5648487,148 85.7092312,143.823675 81.2438195,135.470899 C76.7784078,127.118124 74.5457355,116.311883 74.5457355,103.051852 C74.5457355,90.3138693 76.2005397,75.8011396 79.5101978,59.5132275 C82.8198559,43.2253154 87.7054683,29.2346264 94.1671817,17.5407407 C100.628895,5.84685511 108.325048,0 117.255871,0 C122.29916,0 126.265437,2.32308083 129.154821,6.96931217 C132.044205,11.6155435 133.488875,18.2715616 133.488875,26.9375661 C133.488875,39.3623196 130.021666,53.7706411 123.087145,70.162963 C116.152623,86.5552848 106.749132,102.790749 94.8763906,118.869841 C95.6118702,123.150639 96.8201399,126.204576 98.5012361,128.031746 C100.182332,129.858916 102.388738,130.772487 105.120519,130.772487 C109.428328,130.772487 113.210738,129.545691 116.467862,127.092063 C119.724985,124.638436 123.875129,120.436009 128.918418,114.484656 C130.17924,113.02292 131.597644,112.292063 133.173671,112.292063 Z M113.788628,15.5047619 C111.372052,15.5047619 108.640312,19.8376992 105.593325,28.5037037 C102.546338,37.1697082 99.8671315,47.9237453 97.5556242,60.7661376 C95.244117,73.6085298 93.9833138,85.9286888 93.7731768,97.7269841 C101.233041,85.51105 107.169323,73.2691971 111.5822,61.0010582 C115.995078,48.7329193 118.201483,37.5351476 118.201483,27.4074074 C118.201483,19.4722707 116.730546,15.5047619 113.788628,15.5047619 Z M205.197775,99.1365079 C206.563666,99.1365079 207.614335,99.8151608 208.349815,101.172487 C209.085294,102.529813 209.453028,104.252547 209.453028,106.340741 C209.453028,111.352406 207.929558,114.328038 204.882571,115.267725 C198.57846,117.460328 191.644043,118.713226 184.07911,119.026455 C182.082808,127.796869 178.142798,134.818316 172.258962,140.091005 C166.375125,145.363695 159.703375,148 152.243511,148 C145.9394,148 140.554719,146.486082 136.089308,143.458201 C131.623896,140.43032 128.235487,136.410607 125.92398,131.398942 C123.612473,126.387277 122.456737,120.958054 122.456737,115.111111 C122.456737,107.175974 123.980207,100.102324 127.027194,93.8899471 C130.074181,87.6775703 134.276858,82.8225924 139.635352,79.3248677 C144.993846,75.827143 150.930128,74.0783069 157.444376,74.0783069 C165.429583,74.0783069 171.864932,76.8190202 176.750618,82.3005291 C181.636304,87.782038 184.499378,94.5424642 185.339926,102.582011 C190.278146,102.268782 196.161894,101.2247 202.991347,99.4497354 C203.831895,99.2409161 204.567364,99.1365079 205.197775,99.1365079 Z M153.504326,131.398942 C156.866519,131.398942 159.782126,130.041636 162.251236,127.326984 C164.720346,124.612332 166.37515,120.697027 167.215698,115.580952 C163.958575,113.388349 161.463235,110.517125 159.729604,106.967196 C157.995974,103.417266 157.129172,99.6585736 157.129172,95.6910053 C157.129172,94.0204502 157.286772,92.3499202 157.601978,90.6793651 L156.813968,90.6793651 C152.611227,90.6793651 149.117752,92.6892215 146.333436,96.7089947 C143.549121,100.728768 142.156984,106.392909 142.156984,113.701587 C142.156984,119.44412 143.286453,123.829262 145.545426,126.857143 C147.804399,129.885024 150.45734,131.398942 153.504326,131.398942 Z M225.213226,148 C215.231718,148 207.430498,145.102674 201.809333,139.307937 C196.188167,133.513199 193.377627,125.865303 193.377627,116.364021 C193.377627,107.906836 195.058698,100.493859 198.42089,94.1248677 C201.783082,87.7558764 206.14336,82.8486945 211.501854,79.4031746 C216.860348,75.9576547 222.481429,74.2349206 228.365266,74.2349206 C234.144034,74.2349206 238.635645,75.9315527 241.840235,79.3248677 C245.044824,82.7181828 246.647095,87.0772221 246.647095,92.4021164 C246.647095,96.7873235 245.675226,100.493812 243.731459,103.521693 C241.787691,106.549574 239.239818,108.063492 236.087763,108.063492 C234.091461,108.063492 232.48919,107.593655 231.280902,106.653968 C230.072614,105.714281 229.46848,104.409179 229.46848,102.738624 C229.46848,102.007756 229.573547,101.172491 229.783684,100.232804 C229.993821,99.293117 230.151421,98.6144642 230.256489,98.1968254 C230.781832,96.63068 231.044499,95.1689662 231.044499,93.8116402 C231.044499,92.4543142 230.703032,91.4102329 230.020087,90.6793651 C229.337141,89.9484972 228.365272,89.5830688 227.10445,89.5830688 C224.687874,89.5830688 222.428935,90.6532521 220.327565,92.7936508 C218.226195,94.9340495 216.545124,97.831375 215.284302,101.485714 C214.023479,105.140054 213.393078,109.159766 213.393078,113.544974 C213.393078,119.496326 214.627614,124.011978 217.096724,127.092063 C219.565834,130.172149 223.05931,131.712169 227.577256,131.712169 C231.149585,131.712169 234.432927,130.668088 237.427379,128.579894 C240.421832,126.4917 243.389973,123.411661 246.331891,119.339683 C247.592713,117.773537 249.011117,116.990476 250.587145,116.990476 C251.953035,116.990476 253.029971,117.616925 253.817985,118.869841 C254.605999,120.122758 255,121.845492 255,124.038095 C255,127.796844 254.106931,131.033496 252.320766,133.748148 C249.483917,138.133355 245.75404,141.604925 241.131026,144.162963 C236.508011,146.721 231.202131,148 225.213226,148 Z" id="bloc"></path>
            </g>
        </g>
    </g>
</svg>

<svg xmlns="http://www.w3.org/2000/svg" width="255" height="148"><title>bloc</title><desc>Created with Sketch.</desc><g fill="none"><g fill="#232D70" fill-rule="nonzero"><g><path d="M82.74 99.14c1.37 0 2.42.68 3.15 2.03.73 1.36 1.1 3.08 1.1 5.17 0 2.6-.37 4.62-1.1 6.03-.74 1.4-1.9 2.38-3.47 2.9-6.3 2.2-13.24 3.44-20.8 3.76-2.1 8.66-6.08 15.66-11.9 20.98-5.84 5.34-12.27 8-19.3 8-10.62 0-18.35-4.02-23.18-12.06C2.42 127.9 0 116.26 0 101.02 0 87.55 1.68 72.9 5.04 57.1c3.37-15.83 8.28-29.3 14.74-40.42C26.24 5.56 33.94 0 42.88 0c4.82 0 8.7 2.06 11.65 6.2 2.94 4.1 4.4 9.46 4.4 16.04 0 8.56-1.62 17.07-4.87 25.53C50.8 56.22 45.4 65.1 37.82 74.4c7.04.5 12.77 3.4 17.18 8.68 4.42 5.28 7.04 11.78 7.88 19.5 4.94-.3 10.83-1.36 17.65-3.13.64-.2 1.37-.3 2.2-.3zM39.24 15.5c-2.1 0-4.38 3.1-6.85 9.32-2.48 6.22-4.77 14.65-6.87 25.3-2.1 10.65-3.68 22.3-4.73 34.92C27.74 72.4 33.28 61.26 37.43 51.6c4.15-9.65 6.23-18.24 6.23-25.76 0-3.34-.4-5.9-1.2-7.67-.77-1.78-1.85-2.67-3.22-2.67zm-8.2 115.9c3.26 0 6.15-1.36 8.68-4.07 2.52-2.72 4.2-6.63 5.04-11.75-3.26-2.2-5.75-5.06-7.5-8.6-1.72-3.56-2.6-7.32-2.6-11.3 0-1.45.22-3.43.64-5.94h-.47c-4.3 0-7.9 2.1-10.8 6.34-2.9 4.23-4.33 9.9-4.33 17 0 5.95 1.13 10.5 3.4 13.62 2.25 3.13 4.9 4.7 7.95 4.7zm102.13-19.1c1.37 0 2.45.62 3.23 1.87.8 1.25 1.2 2.98 1.2 5.17 0 4.18-1 7.4-3 9.7-4.53 5.54-9.44 10.1-14.74 13.64-5.3 3.55-11.32 5.32-18.05 5.32-9.24 0-16.1-4.18-20.56-12.53-4.46-8.35-6.7-19.16-6.7-32.42 0-12.74 1.66-27.25 4.97-43.54 3.32-16.27 8.2-30.27 14.67-41.96C100.63 5.84 108.33 0 117.27 0c5.03 0 9 2.32 11.88 6.97 2.9 4.65 4.34 11.3 4.34 19.97 0 12.42-3.48 26.83-10.4 43.22-6.95 16.4-16.35 32.63-28.22 48.7.73 4.3 1.94 7.34 3.62 9.17 1.68 1.83 3.9 2.74 6.62 2.74 4.3 0 8.1-1.22 11.35-3.68s7.4-6.66 12.45-12.62c1.26-1.46 2.68-2.2 4.25-2.2zM113.8 15.5c-2.43 0-5.16 4.34-8.2 13-3.05 8.67-5.73 19.42-8.04 32.27-2.32 12.84-3.58 25.16-3.8 36.96 7.47-12.22 13.4-24.46 17.82-36.73 4.42-12.27 6.62-23.46 6.62-33.6 0-7.93-1.47-11.9-4.4-11.9zm91.4 83.64c1.36 0 2.4.68 3.15 2.03.74 1.36 1.1 3.08 1.1 5.17 0 5-1.52 8-4.57 8.93-6.3 2.2-13.24 3.44-20.8 3.76-2 8.77-5.94 15.8-11.82 21.06-5.88 5.26-12.56 7.9-20.02 7.9-6.3 0-11.7-1.5-16.15-4.54-4.48-3.03-7.86-7.05-10.18-12.06-2.3-5-3.46-10.44-3.46-16.3 0-7.92 1.52-15 4.57-21.2 3.04-6.22 7.25-11.08 12.6-14.58 5.36-3.5 11.3-5.24 17.8-5.24 8 0 14.43 2.74 19.32 8.22 4.9 5.48 7.75 12.24 8.6 20.28 4.93-.3 10.8-1.36 17.64-3.13.83-.2 1.57-.3 2.2-.3zm-51.7 32.26c3.37 0 6.28-1.36 8.75-4.07 2.47-2.72 4.13-6.63 4.97-11.75-3.26-2.2-5.76-5.06-7.5-8.6-1.72-3.56-2.6-7.32-2.6-11.3 0-1.66.17-3.33.48-5h-.8c-4.2 0-7.68 2-10.47 6.03-2.78 4.03-4.17 9.7-4.17 17 0 5.74 1.13 10.13 3.4 13.16 2.24 3.03 4.9 4.54 7.94 4.54zm71.7 16.6c-9.97 0-17.77-2.9-23.4-8.7-5.6-5.8-8.42-13.43-8.42-22.94 0-8.45 1.68-15.87 5.04-22.24 3.36-6.36 7.72-11.27 13.08-14.72 5.36-3.44 10.98-5.17 16.87-5.17 5.77 0 10.27 1.7 13.47 5.1 3.2 3.4 4.8 7.75 4.8 13.07 0 4.4-.96 8.1-2.9 11.12-1.95 3.03-4.5 4.54-7.65 4.54-2 0-3.6-.47-4.82-1.4-1.2-.95-1.8-2.25-1.8-3.92 0-.73.1-1.57.3-2.5.2-.95.37-1.63.48-2.04.52-1.57.78-3.03.78-4.4 0-1.35-.34-2.4-1.02-3.12-.68-.73-1.65-1.1-2.92-1.1-2.4 0-4.67 1.07-6.77 3.2-2.1 2.15-3.78 5.05-5.05 8.7-1.26 3.66-1.9 7.68-1.9 12.06 0 5.96 1.25 10.47 3.72 13.55 2.47 3.07 5.96 4.6 10.48 4.6 3.57 0 6.85-1.03 9.85-3.12 3-2.1 5.96-5.17 8.9-9.24 1.26-1.57 2.68-2.35 4.26-2.35 1.35 0 2.43.62 3.22 1.87.8 1.25 1.18 2.98 1.18 5.17 0 3.76-.9 7-2.68 9.7-2.84 4.4-6.57 7.86-11.2 10.42-4.6 2.56-9.92 3.84-15.9 3.84z"/></g></g></g></svg>
